X:1
T:Title
%%score { ( 1 4 ) | ( 2 3 ) }
L:1/8
M:6/8
K:Bb
V:1 treble nm="Grand Piano"
V:4 treble 
V:2 bass 
V:3 bass 
V:1
 z3 z2[Q:1/4=100] [DF] | [DF]2 [DF] [DF]2 [DB] | [FA]2 [EG] [DF]2 [DF] | F2 E EDE | %4
 [EG]2 [DF] [DF]2 [DF] | [DF]2 [DF] [DF]2 [DB] | [FA]2 [EG] [DF]2 D | C2 F F=EF | A2 G F2 F | %9
 c2 B AGF | F2 [EG] [DB]2 [DB] | c2 B AGF | F2 [EG] [DB]2 [DF] | d2 d c2 c |[M:7/8] B2 [FA] G3 G | %15
[M:3/4] F2 BA GA | d2 c [DB]3 | [Fd]3 [DB]2 [B,DF] | [F,B,D][DF] [DFB] [CFA]3 | [Fe]4 z2 | %20
 [EG][DF] [DB] [DB]2 F | d2 d c2 c |[M:7/8] B2 [FA] G3 G |[M:3/4] F2 BA GA | %24
[M:7/4] d2 c [DB]3 z2 z2 z4 |] %25
V:2
 z3 z2 [B,,B,] | [B,,B,]2 [B,,B,] [B,,B,]2 [B,,F,] | [B,,B,]2 [B,,B,] [B,,B,]2 [B,,B,] | %3
 [F,B,D]2 [F,A,C] C=B,[F,A,C] | [B,,B,]2 [B,,B,] [B,,B,]2 [B,,B,] | %5
 [B,,B,]2 [B,,B,] [B,,B,]2 [B,,F,] | [B,,B,]2 [B,,B,] [B,,B,]2 [B,,F,B,] | z3 .A,3 | %8
 [C,C]2 [C,B,C] [F,A,C]2 [F,A,] | [F,A,E]2 [F,D] C[G,E][F,A,E] | [B,D]2 [B,,B,] [B,,F,]2 [B,,F,] | %11
 [F,A,E]2 [F,D] C[G,E][F,A,E] | [B,D]2 [B,,B,] [B,,F,]2 [B,,B,] | [B,F]2 [B,F] [A,C^F]2 [A,CF] | %14
[M:7/8] [G,CG]2[K:bass] [D,B,] [E,B,E]3 [E,B,E] |[M:3/4] [F,B,D]2 [F,DF] [F,CF]2 [F,CF] | %16
 [F,B,F]2 [F,A,E] [B,,F,]3 | [B,,B,]2 [B,,B,] [B,,F,]2 B,, | z B, B,, F,3 | %19
 [F,A,]2 F, [F,CF]2 [G,CE] | [B,,C]2 [B,,F,] [B,,F,]2[K:treble] [B,D] | %21
 [B,F]2 [B,F] [A,C^F]2 [A,CF] |[M:7/8] [G,CG]2[K:bass] [D,B,] [E,B,E]3 [E,B,E] | %23
[M:3/4] [F,B,D]2 [F,DF] [F,CF]2 [F,CF] |[M:7/4] [F,B,F]2 [F,A,E] [B,,F,]3 z2 z2 z4 |] %25
V:3
 x6 | x6 | x6 | z3 .[F,A,]3 | x6 | x6 | x6 | [C,F,A,]2 [C,A,C] [C,C]-[C,G,C][C,A,C] | x6 | %9
 z3 .F,3 | x6 | z3 .F,3 | x6 | x6 |[M:7/8] x2[K:bass] x5 |[M:3/4] x6 | x6 | x6 | B,,2 z2 z2 | x6 | %20
 x5[K:treble] x | x6 |[M:7/8] x2[K:bass] x5 |[M:3/4] x6 |[M:7/4] x14 |] %25
V:4
 x6 | x6 | x6 | x6 | x6 | x6 | x6 | x6 | x6 | x6 | x6 | x6 | x6 | x6 |[M:7/8] x7 |[M:3/4] x6 | x6 | %17
 x6 | x6 | z2 A, A2 G | x6 | x6 |[M:7/8] x7 |[M:3/4] x6 |[M:7/4] x14 |] %25

